website/src/static/table/checkboxes.svg

<svg width="144" height="80" viewBox="0 0 144 80" fill="none" xmlns="http://www.w3.org/2000/svg">
<rect width="144" height="80" fill="white"/>
<mask id="path-1-inside-1_760_66191" fill="white">
<path d="M0 0H40V40H0V0Z"/>
</mask>
<path d="M0 0H40V40H0V0Z" fill="#F4F5F9"/>
<rect x="12" y="12" width="16" height="16" rx="4" fill="#008FF8"/>
<path d="M23.25 18L19 22.25L16.75 20" stroke="white" stroke-width="2" stroke-linecap="round" stroke-linejoin="round"/>
<path d="M40 39H0V41H40V39Z" fill="#E0E1E9" mask="url(#path-1-inside-1_760_66191)"/>
<mask id="path-5-inside-2_760_66191" fill="white">
<path d="M0 40H40V80H0V40Z"/>
</mask>
<path d="M0 40H40V80H0V40Z" fill="#E9F7FF"/>
<rect x="12" y="52" width="16" height="16" rx="4" fill="#008FF8"/>
<path d="M23.25 58L19 62.25L16.75 60" stroke="white" stroke-width="2" stroke-linecap="round" stroke-linejoin="round"/>
<path d="M40 79H0V81H40V79Z" fill="#E0E1E9" mask="url(#path-5-inside-2_760_66191)"/>
<mask id="path-9-inside-3_760_66191" fill="white">
<path d="M40 40H144V80H40V40Z"/>
</mask>
<path d="M40 40H144V80H40V40Z" fill="#E9F7FF"/>
<path d="M61.5753 60.1293H60.0241C59.9645 59.7978 59.8535 59.5062 59.6911 59.2543C59.5286 59.0024 59.3298 58.7886 59.0945 58.6129C58.8591 58.4373 58.5956 58.3047 58.304 58.2152C58.0156 58.1257 57.709 58.081 57.3842 58.081C56.7976 58.081 56.2723 58.2285 55.8082 58.5234C55.3475 58.8184 54.983 59.2509 54.7145 59.821C54.4493 60.3911 54.3168 61.0871 54.3168 61.9091C54.3168 62.7377 54.4493 63.437 54.7145 64.0071C54.983 64.5772 55.3492 65.008 55.8132 65.2997C56.2772 65.5914 56.7992 65.7372 57.3793 65.7372C57.7008 65.7372 58.0057 65.6941 58.294 65.608C58.5857 65.5185 58.8492 65.3875 59.0845 65.2152C59.3198 65.0429 59.5187 64.8324 59.6811 64.5838C59.8468 64.3319 59.9612 64.0436 60.0241 63.7188L61.5753 63.7237C61.4924 64.2242 61.3317 64.6849 61.093 65.1058C60.8577 65.5234 60.5545 65.8847 60.1832 66.1896C59.8153 66.4912 59.3944 66.7249 58.9205 66.8906C58.4465 67.0563 57.9295 67.1392 57.3693 67.1392C56.4877 67.1392 55.7022 66.9304 55.0128 66.5128C54.3234 66.0919 53.7798 65.4903 53.3821 64.7081C52.9877 63.9259 52.7905 62.9929 52.7905 61.9091C52.7905 60.822 52.9893 59.889 53.3871 59.1101C53.7848 58.3279 54.3284 57.728 55.0178 57.3104C55.7071 56.8894 56.491 56.679 57.3693 56.679C57.9096 56.679 58.4134 56.7569 58.8807 56.9126C59.3513 57.0651 59.7739 57.2905 60.1484 57.5888C60.523 57.8838 60.8329 58.245 61.0781 58.6726C61.3234 59.0968 61.4891 59.5824 61.5753 60.1293ZM68.1316 63.8331V59.3636H69.623V67H68.1614V65.6776H68.0819C67.9062 66.0852 67.6245 66.425 67.2367 66.6967C66.8522 66.9652 66.3733 67.0994 65.7999 67.0994C65.3094 67.0994 64.8752 66.9917 64.4973 66.7763C64.1228 66.5575 63.8278 66.2344 63.6124 65.8068C63.4003 65.3793 63.2942 64.8506 63.2942 64.2209V59.3636H64.7807V64.0419C64.7807 64.5623 64.9249 64.9766 65.2132 65.2848C65.5016 65.593 65.8761 65.7472 66.3368 65.7472C66.6152 65.7472 66.892 65.6776 67.1671 65.5384C67.4455 65.3991 67.6758 65.1887 67.8581 64.907C68.0437 64.6252 68.1349 64.2673 68.1316 63.8331ZM75.185 59.3636V60.5568H71.0138V59.3636H75.185ZM72.1325 57.5341H73.619V64.7578C73.619 65.0462 73.6621 65.2633 73.7482 65.4091C73.8344 65.5516 73.9454 65.6494 74.0813 65.7024C74.2205 65.7521 74.3713 65.777 74.5337 65.777C74.6531 65.777 74.7575 65.7687 74.8469 65.7521C74.9364 65.7356 75.006 65.7223 75.0558 65.7124L75.3242 66.9403C75.238 66.9735 75.1154 67.0066 74.9563 67.0398C74.7972 67.0762 74.5984 67.0961 74.3597 67.0994C73.9686 67.1061 73.604 67.0365 73.266 66.8906C72.9279 66.7448 72.6545 66.5194 72.4457 66.2145C72.2369 65.9096 72.1325 65.5268 72.1325 65.0661V57.5341ZM80.0385 67.1541C79.2862 67.1541 78.6382 66.9934 78.0946 66.6719C77.5544 66.3471 77.1368 65.8913 76.8418 65.3047C76.5501 64.7147 76.4043 64.0237 76.4043 63.2315C76.4043 62.4493 76.5501 61.7599 76.8418 61.1634C77.1368 60.5668 77.5478 60.1011 78.0748 59.7663C78.6051 59.4316 79.2248 59.2642 79.9341 59.2642C80.365 59.2642 80.7826 59.3355 81.187 59.478C81.5913 59.6205 81.9542 59.8442 82.2757 60.1491C82.5972 60.4541 82.8508 60.8501 83.0364 61.3374C83.222 61.8213 83.3148 62.4096 83.3148 63.1023V63.6293H77.2445V62.5156H81.8581C81.8581 62.1245 81.7786 61.7782 81.6195 61.4766C81.4604 61.1716 81.2367 60.9313 80.9483 60.7557C80.6633 60.58 80.3285 60.4922 79.9441 60.4922C79.5265 60.4922 79.1619 60.5949 78.8503 60.8004C78.5421 61.0026 78.3034 61.2678 78.1344 61.5959C77.9687 61.9207 77.8858 62.2737 77.8858 62.6548V63.5249C77.8858 64.0353 77.9753 64.4695 78.1543 64.8274C78.3366 65.1854 78.5901 65.4588 78.915 65.6477C79.2398 65.8333 79.6193 65.9261 80.0534 65.9261C80.3352 65.9261 80.592 65.8864 80.824 65.8068C81.056 65.724 81.2566 65.6013 81.4256 65.4389C81.5946 65.2765 81.7239 65.076 81.8134 64.8374L83.2203 65.0909C83.1077 65.5052 82.9055 65.8681 82.6138 66.1797C82.3255 66.4879 81.9625 66.7282 81.525 66.9006C81.0908 67.0696 80.5953 67.1541 80.0385 67.1541ZM91.5279 67.1491C90.9114 67.1491 90.3612 66.9917 89.8773 66.6768C89.3967 66.3587 89.0189 65.9062 88.7438 65.3196C88.472 64.7296 88.3361 64.022 88.3361 63.1967C88.3361 62.3714 88.4737 61.6655 88.7488 61.0788C89.0272 60.4922 89.4083 60.0431 89.8922 59.7315C90.3761 59.42 90.9247 59.2642 91.5378 59.2642C92.0118 59.2642 92.3929 59.3438 92.6813 59.5028C92.973 59.6586 93.1983 59.8409 93.3574 60.0497C93.5198 60.2585 93.6458 60.4425 93.7353 60.6016H93.8248V56.8182H95.3113V67H93.8596V65.8118H93.7353C93.6458 65.9742 93.5165 66.1598 93.3475 66.3686C93.1818 66.5774 92.9531 66.7597 92.6614 66.9155C92.3697 67.0713 91.9919 67.1491 91.5279 67.1491ZM91.856 65.8814C92.2836 65.8814 92.6448 65.7687 92.9398 65.5433C93.2381 65.3146 93.4635 64.9981 93.6159 64.5938C93.7717 64.1894 93.8496 63.7187 93.8496 63.1818C93.8496 62.6515 93.7734 62.1875 93.6209 61.7898C93.4685 61.392 93.2447 61.0821 92.9498 60.8601C92.6548 60.638 92.2902 60.527 91.856 60.527C91.4086 60.527 91.0357 60.643 90.7374 60.875C90.4391 61.107 90.2137 61.4235 90.0613 61.8246C89.9121 62.2256 89.8375 62.678 89.8375 63.1818C89.8375 63.6922 89.9138 64.1513 90.0662 64.5589C90.2187 64.9666 90.4441 65.2898 90.7424 65.5284C91.044 65.7637 91.4152 65.8814 91.856 65.8814ZM100.65 67.1541C99.9336 67.1541 99.3088 66.9901 98.7752 66.6619C98.2416 66.3338 97.8273 65.8748 97.5323 65.2848C97.2373 64.6948 97.0898 64.0054 97.0898 63.2166C97.0898 62.4245 97.2373 61.7318 97.5323 61.1385C97.8273 60.5452 98.2416 60.0845 98.7752 59.7564C99.3088 59.4283 99.9336 59.2642 100.65 59.2642C101.365 59.2642 101.99 59.4283 102.524 59.7564C103.057 60.0845 103.472 60.5452 103.767 61.1385C104.062 61.7318 104.209 62.4245 104.209 63.2166C104.209 64.0054 104.062 64.6948 103.767 65.2848C103.472 65.8748 103.057 66.3338 102.524 66.6619C101.99 66.9901 101.365 67.1541 100.65 67.1541ZM100.654 65.9062C101.118 65.9062 101.503 65.7836 101.808 65.5384C102.113 65.2931 102.338 64.9666 102.484 64.5589C102.633 64.1513 102.708 63.7022 102.708 63.2116C102.708 62.7244 102.633 62.277 102.484 61.8693C102.338 61.4583 102.113 61.1286 101.808 60.88C101.503 60.6314 101.118 60.5071 100.654 60.5071C100.187 60.5071 99.7994 60.6314 99.4911 60.88C99.1862 61.1286 98.9592 61.4583 98.81 61.8693C98.6642 62.277 98.5913 62.7244 98.5913 63.2116C98.5913 63.7022 98.6642 64.1513 98.81 64.5589C98.9592 64.9666 99.1862 65.2931 99.4911 65.5384C99.7994 65.7836 100.187 65.9062 100.654 65.9062ZM109.07 70.0227C108.464 70.0227 107.942 69.9432 107.504 69.7841C107.07 69.625 106.715 69.4145 106.44 69.1527C106.165 68.8909 105.96 68.6042 105.824 68.2926L107.101 67.7656C107.191 67.9115 107.31 68.0656 107.459 68.228C107.612 68.3937 107.817 68.5346 108.076 68.6506C108.338 68.7666 108.674 68.8246 109.085 68.8246C109.648 68.8246 110.114 68.687 110.482 68.4119C110.85 68.1402 111.034 67.706 111.034 67.1094V65.608H110.939C110.85 65.7704 110.721 65.951 110.552 66.1499C110.386 66.3487 110.157 66.5211 109.866 66.6669C109.574 66.8127 109.194 66.8857 108.727 66.8857C108.124 66.8857 107.58 66.7448 107.096 66.4631C106.616 66.178 106.235 65.7588 105.953 65.2053C105.675 64.6484 105.535 63.964 105.535 63.152C105.535 62.34 105.673 61.6439 105.948 61.0639C106.226 60.4839 106.608 60.0398 107.091 59.7315C107.575 59.42 108.124 59.2642 108.737 59.2642C109.211 59.2642 109.594 59.3438 109.885 59.5028C110.177 59.6586 110.404 59.8409 110.567 60.0497C110.732 60.2585 110.86 60.4425 110.949 60.6016H111.059V59.3636H112.515V67.169C112.515 67.8253 112.363 68.3639 112.058 68.7848C111.753 69.2057 111.34 69.5173 110.82 69.7195C110.303 69.9216 109.72 70.0227 109.07 70.0227ZM109.055 65.6527C109.483 65.6527 109.844 65.5533 110.139 65.3544C110.437 65.1522 110.663 64.8639 110.815 64.4893C110.971 64.1115 111.049 63.6591 111.049 63.1321C111.049 62.6184 110.973 62.166 110.82 61.7749C110.668 61.3838 110.444 61.0788 110.149 60.8601C109.854 60.638 109.489 60.527 109.055 60.527C108.608 60.527 108.235 60.643 107.937 60.875C107.638 61.1037 107.413 61.4152 107.26 61.8097C107.111 62.2041 107.037 62.6449 107.037 63.1321C107.037 63.6326 107.113 64.0717 107.265 64.4496C107.418 64.8274 107.643 65.1224 107.942 65.3345C108.243 65.5466 108.614 65.6527 109.055 65.6527ZM117.711 70.0227C117.104 70.0227 116.582 69.9432 116.145 69.7841C115.711 69.625 115.356 69.4145 115.081 69.1527C114.806 68.8909 114.6 68.6042 114.464 68.2926L115.742 67.7656C115.831 67.9115 115.951 68.0656 116.1 68.228C116.252 68.3937 116.458 68.5346 116.716 68.6506C116.978 68.7666 117.315 68.8246 117.726 68.8246C118.289 68.8246 118.755 68.687 119.123 68.4119C119.491 68.1402 119.675 67.706 119.675 67.1094V65.608H119.58C119.491 65.7704 119.361 65.951 119.192 66.1499C119.027 66.3487 118.798 66.5211 118.506 66.6669C118.215 66.8127 117.835 66.8857 117.368 66.8857C116.765 66.8857 116.221 66.7448 115.737 66.4631C115.256 66.178 114.875 65.7588 114.594 65.2053C114.315 64.6484 114.176 63.964 114.176 63.152C114.176 62.34 114.314 61.6439 114.589 61.0639C114.867 60.4839 115.248 60.0398 115.732 59.7315C116.216 59.42 116.765 59.2642 117.378 59.2642C117.852 59.2642 118.234 59.3438 118.526 59.5028C118.818 59.6586 119.045 59.8409 119.207 60.0497C119.373 60.2585 119.501 60.4425 119.59 60.6016H119.699V59.3636H121.156V67.169C121.156 67.8253 121.004 68.3639 120.699 68.7848C120.394 69.2057 119.981 69.5173 119.461 69.7195C118.944 69.9216 118.36 70.0227 117.711 70.0227ZM117.696 65.6527C118.123 65.6527 118.485 65.5533 118.78 65.3544C119.078 65.1522 119.303 64.8639 119.456 64.4893C119.612 64.1115 119.689 63.6591 119.689 63.1321C119.689 62.6184 119.613 62.166 119.461 61.7749C119.308 61.3838 119.085 61.0788 118.79 60.8601C118.495 60.638 118.13 60.527 117.696 60.527C117.248 60.527 116.876 60.643 116.577 60.875C116.279 61.1037 116.054 61.4152 115.901 61.8097C115.752 62.2041 115.677 62.6449 115.677 63.1321C115.677 63.6326 115.754 64.0717 115.906 64.4496C116.059 64.8274 116.284 65.1224 116.582 65.3345C116.884 65.5466 117.255 65.6527 117.696 65.6527ZM126.366 67.1541C125.65 67.1541 125.026 66.9901 124.492 66.6619C123.958 66.3338 123.544 65.8748 123.249 65.2848C122.954 64.6948 122.807 64.0054 122.807 63.2166C122.807 62.4245 122.954 61.7318 123.249 61.1385C123.544 60.5452 123.958 60.0845 124.492 59.7564C125.026 59.4283 125.65 59.2642 126.366 59.2642C127.082 59.2642 127.707 59.4283 128.241 59.7564C128.774 60.0845 129.189 60.5452 129.483 61.1385C129.778 61.7318 129.926 62.4245 129.926 63.2166C129.926 64.0054 129.778 64.6948 129.483 65.2848C129.189 65.8748 128.774 66.3338 128.241 66.6619C127.707 66.9901 127.082 67.1541 126.366 67.1541ZM126.371 65.9062C126.835 65.9062 127.22 65.7836 127.525 65.5384C127.83 65.2931 128.055 64.9666 128.201 64.5589C128.35 64.1513 128.425 63.7022 128.425 63.2116C128.425 62.7244 128.35 62.277 128.201 61.8693C128.055 61.4583 127.83 61.1286 127.525 60.88C127.22 60.6314 126.835 60.5071 126.371 60.5071C125.904 60.5071 125.516 60.6314 125.208 60.88C124.903 61.1286 124.676 61.4583 124.527 61.8693C124.381 62.277 124.308 62.7244 124.308 63.2116C124.308 63.7022 124.381 64.1513 124.527 64.5589C124.676 64.9666 124.903 65.2931 125.208 65.5384C125.516 65.7836 125.904 65.9062 126.371 65.9062ZM137.308 61.228L135.96 61.4666C135.904 61.2943 135.814 61.1302 135.692 60.9744C135.572 60.8187 135.41 60.6911 135.205 60.5916C134.999 60.4922 134.742 60.4425 134.434 60.4425C134.013 60.4425 133.662 60.5369 133.38 60.7259C133.098 60.9115 132.957 61.1518 132.957 61.4467C132.957 61.7019 133.052 61.9074 133.241 62.0632C133.43 62.219 133.735 62.3466 134.156 62.446L135.369 62.7244C136.071 62.8868 136.595 63.1371 136.94 63.4751C137.284 63.8132 137.457 64.2524 137.457 64.7926C137.457 65.25 137.324 65.6577 137.059 66.0156C136.797 66.3703 136.431 66.6487 135.96 66.8509C135.493 67.053 134.951 67.1541 134.335 67.1541C133.479 67.1541 132.782 66.9718 132.241 66.6072C131.701 66.2393 131.37 65.7173 131.247 65.0412L132.684 64.8224C132.773 65.197 132.957 65.4804 133.236 65.6726C133.514 65.8615 133.877 65.956 134.325 65.956C134.812 65.956 135.201 65.8549 135.493 65.6527C135.785 65.4472 135.93 65.197 135.93 64.902C135.93 64.6634 135.841 64.4628 135.662 64.3004C135.486 64.138 135.216 64.0154 134.852 63.9325L133.559 63.6491C132.846 63.4867 132.319 63.2282 131.978 62.8736C131.64 62.5189 131.471 62.0698 131.471 61.5263C131.471 61.0755 131.597 60.6811 131.849 60.343C132.101 60.005 132.449 59.7415 132.893 59.5526C133.337 59.3603 133.846 59.2642 134.419 59.2642C135.244 59.2642 135.894 59.4432 136.368 59.8011C136.842 60.1558 137.155 60.6314 137.308 61.228Z" fill="#006DCA"/>
<path d="M144 79H40V81H144V79Z" fill="#E0E1E9" mask="url(#path-9-inside-3_760_66191)"/>
<mask id="path-12-inside-4_760_66191" fill="white">
<path d="M40 0H144V40H40V0Z"/>
</mask>
<path d="M40 0H144V40H40V0Z" fill="#F4F5F9"/>
<path d="M52.5284 16.4062V15.2727H59.2827V16.4062H56.5597V24H55.2472V16.4062H52.5284ZM60.7752 24V15.2727H62.092V19.0653H66.4428V15.2727H67.7638V24H66.4428V20.1946H62.092V24H60.7752Z" fill="#191B23"/>
<path d="M144 40V41H145V40H144ZM143 0V40H145V0H143ZM144 39H40V41H144V39Z" fill="#E0E1E9" mask="url(#path-12-inside-4_760_66191)"/>
</svg>

<svg xmlns="http://www.w3.org/2000/svg" width="144" height="80" fill="none"><path fill="#fff" d="M0 0h144v80H0z"/><mask id="a" fill="#fff"><path d="M0 0h40v40H0V0Z"/></mask><path fill="#F4F5F9" d="M0 0h40v40H0V0Z"/><rect width="16" height="16" x="12" y="12" fill="#008FF8" rx="4"/><path stroke="#fff" stroke-linecap="round" stroke-linejoin="round" stroke-width="2" d="M23.25 18 19 22.25 16.75 20"/><path fill="#E0E1E9" d="M40 39H0v2h40v-2Z" mask="url(#a)"/><mask id="b" fill="#fff"><path d="M0 40h40v40H0V40Z"/></mask><path fill="#E9F7FF" d="M0 40h40v40H0V40Z"/><rect width="16" height="16" x="12" y="52" fill="#008FF8" rx="4"/><path stroke="#fff" stroke-linecap="round" stroke-linejoin="round" stroke-width="2" d="M23.25 58 19 62.25 16.75 60"/><path fill="#E0E1E9" d="M40 79H0v2h40v-2Z" mask="url(#b)"/><mask id="c" fill="#fff"><path d="M40 40h104v40H40V40Z"/></mask><path fill="#E9F7FF" d="M40 40h104v40H40V40Z"/><path fill="#006DCA" d="M61.575 60.13h-1.55a2.37 2.37 0 0 0-.93-1.517 2.574 2.574 0 0 0-.791-.398 3.086 3.086 0 0 0-.92-.134c-.586 0-1.112.147-1.576.442-.46.295-.825.728-1.093 1.298-.266.57-.398 1.266-.398 2.088 0 .829.132 1.528.398 2.098.268.57.634 1.001 1.098 1.293.464.291.986.437 1.566.437.322 0 .627-.043.915-.129.292-.09.555-.22.79-.393a2.379 2.379 0 0 0 .94-1.496l1.551.005c-.083.5-.243.96-.482 1.382a3.812 3.812 0 0 1-.91 1.084 4.115 4.115 0 0 1-1.263.7 4.67 4.67 0 0 1-1.55.25c-.882 0-1.668-.21-2.357-.627-.69-.421-1.233-1.023-1.63-1.805-.395-.782-.593-1.715-.593-2.799 0-1.087.2-2.02.597-2.799.398-.782.941-1.382 1.63-1.8.69-.42 1.474-.631 2.352-.631.54 0 1.044.078 1.512.234.47.152.893.378 1.267.676.375.295.685.656.93 1.084.245.424.411.91.497 1.456Zm6.557 3.703v-4.47h1.491V67h-1.462v-1.322h-.08a2.383 2.383 0 0 1-.844 1.019c-.385.268-.864.402-1.437.402-.49 0-.925-.107-1.303-.323a2.27 2.27 0 0 1-.885-.97c-.212-.427-.318-.955-.318-1.585v-4.857h1.487v4.678c0 .52.144.935.432 1.243.289.308.663.462 1.124.462.278 0 .555-.07.83-.209.278-.139.509-.35.691-.631.186-.282.277-.64.274-1.074Zm7.053-4.47v1.194h-4.171v-1.193h4.171Zm-3.053-1.829h1.487v7.224c0 .288.043.505.13.651.085.143.196.24.332.293.14.05.29.075.453.075.12 0 .223-.008.313-.025.09-.016.159-.03.209-.04l.268 1.228a2.499 2.499 0 0 1-.368.1c-.159.036-.358.056-.596.06a2.615 2.615 0 0 1-1.094-.21 1.876 1.876 0 0 1-.82-.675c-.21-.305-.314-.688-.314-1.149v-7.532Zm7.906 9.62c-.752 0-1.4-.16-1.943-.482a3.272 3.272 0 0 1-1.253-1.367c-.292-.59-.438-1.281-.438-2.074 0-.782.146-1.471.438-2.068a3.398 3.398 0 0 1 1.233-1.397c.53-.334 1.15-.502 1.86-.502.43 0 .848.072 1.252.214.404.142.767.366 1.089.671.321.305.575.701.76 1.188.186.484.279 1.073.279 1.765v.527h-6.07v-1.113h4.613c0-.392-.08-.738-.239-1.04a1.803 1.803 0 0 0-.67-.72 1.875 1.875 0 0 0-1.005-.264 1.94 1.94 0 0 0-1.094.308 2.07 2.07 0 0 0-.716.796 2.296 2.296 0 0 0-.248 1.059v.87c0 .51.09.944.268 1.302.183.358.436.632.761.82.325.186.704.28 1.138.28.282 0 .539-.04.771-.12a1.599 1.599 0 0 0 .99-.97l1.406.254a2.547 2.547 0 0 1-.606 1.089 2.94 2.94 0 0 1-1.089.72c-.434.17-.93.254-1.487.254Zm11.49-.005a2.96 2.96 0 0 1-1.65-.472c-.481-.318-.86-.77-1.134-1.357-.272-.59-.408-1.298-.408-2.123 0-.826.138-1.532.413-2.118.278-.587.66-1.036 1.143-1.348a2.974 2.974 0 0 1 1.646-.467c.474 0 .855.08 1.143.239.292.156.517.338.676.547.163.209.289.393.378.552h.09v-3.784h1.486V67H93.86v-1.188h-.125c-.09.162-.219.348-.388.557a2.155 2.155 0 0 1-.686.546c-.291.156-.67.234-1.133.234Zm.328-1.268c.428 0 .789-.112 1.084-.338.298-.228.523-.545.676-.95.156-.404.234-.874.234-1.411 0-.53-.077-.995-.23-1.392-.151-.398-.375-.708-.67-.93-.295-.222-.66-.333-1.094-.333-.447 0-.82.116-1.119.348a2.126 2.126 0 0 0-.676.95c-.149.4-.224.853-.224 1.357 0 .51.077.97.23 1.377.152.408.377.73.675.97.302.235.673.352 1.114.352Zm8.794 1.273c-.716 0-1.341-.164-1.875-.492a3.319 3.319 0 0 1-1.243-1.377c-.295-.59-.442-1.28-.442-2.068 0-.792.147-1.485.442-2.078a3.312 3.312 0 0 1 1.243-1.383c.534-.328 1.159-.492 1.875-.492.715 0 1.34.164 1.874.492.533.328.948.79 1.243 1.383.295.593.442 1.285.442 2.078 0 .788-.147 1.478-.442 2.068a3.323 3.323 0 0 1-1.243 1.377c-.534.328-1.159.492-1.874.492Zm.004-1.248c.464 0 .849-.122 1.154-.368.305-.245.53-.571.676-.98.149-.407.224-.856.224-1.346 0-.488-.075-.935-.224-1.343a2.187 2.187 0 0 0-.676-.989c-.305-.249-.69-.373-1.154-.373-.467 0-.855.124-1.163.373a2.222 2.222 0 0 0-.681.99 3.96 3.96 0 0 0-.219 1.342c0 .49.073.94.219 1.347.15.408.376.734.681.98.308.245.696.367 1.163.367Zm8.416 4.117c-.606 0-1.128-.08-1.566-.239-.434-.159-.789-.37-1.064-.631a2.652 2.652 0 0 1-.616-.86l1.277-.527c.09.145.209.3.358.462.153.166.358.307.617.423.262.116.598.174 1.009.174.563 0 1.029-.138 1.397-.413.368-.272.552-.706.552-1.303v-1.501h-.095a3.351 3.351 0 0 1-.387.542 2.107 2.107 0 0 1-.686.517c-.292.146-.672.219-1.139.219-.603 0-1.147-.141-1.631-.423-.48-.285-.861-.704-1.143-1.258-.278-.557-.418-1.241-.418-2.053 0-.812.138-1.508.413-2.088.278-.58.66-1.024 1.143-1.333a2.976 2.976 0 0 1 1.646-.467c.474 0 .857.08 1.148.239.292.156.519.338.682.547.165.209.293.393.382.552h.11v-1.238h1.456v7.805c0 .656-.152 1.195-.457 1.616-.305.42-.718.732-1.238.934-.517.203-1.1.304-1.75.304Zm-.015-4.37c.428 0 .789-.1 1.084-.299.298-.202.524-.49.676-.865.156-.377.234-.83.234-1.357 0-.514-.076-.966-.229-1.357a2.013 2.013 0 0 0-.671-.915c-.295-.222-.66-.333-1.094-.333-.447 0-.82.116-1.118.348-.299.229-.524.54-.677.935a3.718 3.718 0 0 0-.223 1.322c0 .5.076.94.228 1.318.153.377.378.672.677.885.301.212.672.318 1.113.318Zm8.656 4.37c-.607 0-1.129-.08-1.566-.239-.434-.159-.789-.37-1.064-.631a2.655 2.655 0 0 1-.617-.86l1.278-.527c.089.145.209.3.358.462.152.166.358.307.616.423.262.116.599.174 1.01.174.563 0 1.029-.138 1.397-.413.368-.272.552-.706.552-1.303v-1.501h-.095a3.364 3.364 0 0 1-.388.542 2.086 2.086 0 0 1-.686.517c-.291.146-.671.219-1.138.219-.603 0-1.147-.141-1.631-.423-.481-.285-.862-.704-1.143-1.258-.279-.557-.418-1.241-.418-2.053 0-.812.138-1.508.413-2.088.278-.58.659-1.024 1.143-1.333a2.976 2.976 0 0 1 1.646-.467c.474 0 .856.08 1.148.239.292.156.519.338.681.547.166.209.294.393.383.552h.109v-1.238h1.457v7.805c0 .656-.152 1.195-.457 1.616-.305.42-.718.732-1.238.934-.517.203-1.101.304-1.75.304Zm-.015-4.37c.427 0 .789-.1 1.084-.299.298-.202.523-.49.676-.865.156-.377.233-.83.233-1.357 0-.514-.076-.966-.228-1.357-.153-.391-.376-.696-.671-.915-.295-.222-.66-.333-1.094-.333-.448 0-.82.116-1.119.348-.298.229-.523.54-.676.935a3.718 3.718 0 0 0-.224 1.322c0 .5.077.94.229 1.318.153.377.378.672.676.885.302.212.673.318 1.114.318Zm8.67 1.501c-.716 0-1.34-.164-1.874-.492a3.316 3.316 0 0 1-1.243-1.377c-.295-.59-.442-1.28-.442-2.068 0-.792.147-1.485.442-2.078a3.31 3.31 0 0 1 1.243-1.383c.534-.328 1.158-.492 1.874-.492.716 0 1.341.164 1.875.492.533.328.948.79 1.242 1.383.295.593.443 1.285.443 2.078 0 .788-.148 1.478-.443 2.068a3.314 3.314 0 0 1-1.242 1.377c-.534.328-1.159.492-1.875.492Zm.005-1.248c.464 0 .849-.122 1.154-.368.305-.245.53-.571.676-.98.149-.407.224-.856.224-1.346 0-.488-.075-.935-.224-1.343a2.187 2.187 0 0 0-.676-.989c-.305-.249-.69-.373-1.154-.373-.467 0-.855.124-1.163.373a2.22 2.22 0 0 0-.681.99 3.956 3.956 0 0 0-.219 1.342c0 .49.073.94.219 1.347.149.408.376.734.681.98.308.245.696.367 1.163.367Zm10.937-4.678-1.348.239a1.601 1.601 0 0 0-.268-.493 1.339 1.339 0 0 0-.487-.382c-.206-.1-.463-.15-.771-.15-.421 0-.772.095-1.054.284-.282.185-.423.426-.423.72 0 .256.095.461.284.617.189.156.494.284.915.383l1.213.278c.702.163 1.226.413 1.571.751.344.338.517.777.517 1.318 0 .457-.133.865-.398 1.223-.262.354-.628.633-1.099.835-.467.202-1.009.303-1.625.303-.856 0-1.553-.182-2.094-.547-.54-.368-.871-.89-.994-1.566l1.437-.219c.089.375.273.658.552.85.278.19.641.284 1.089.284.487 0 .876-.101 1.168-.303.292-.206.437-.456.437-.751a.78.78 0 0 0-.268-.602c-.176-.162-.446-.285-.81-.367l-1.293-.284c-.713-.162-1.24-.42-1.581-.775-.338-.355-.507-.804-.507-1.348 0-.45.126-.845.378-1.183.252-.338.6-.602 1.044-.79.444-.193.953-.289 1.526-.289.825 0 1.475.18 1.949.537.474.355.787.83.94 1.427Z"/><path fill="#E0E1E9" d="M144 79H40v2h104v-2Z" mask="url(#c)"/><mask id="d" fill="#fff"><path d="M40 0h104v40H40V0Z"/></mask><path fill="#F4F5F9" d="M40 0h104v40H40V0Z"/><path fill="#191B23" d="M52.528 16.406v-1.133h6.755v1.133H56.56V24h-1.313v-7.594h-2.719ZM60.775 24v-8.727h1.317v3.792h4.35v-3.792h1.322V24h-1.321v-3.805h-4.351V24h-1.317Z"/><path fill="#E0E1E9" d="M144 40v1h1v-1h-1Zm-1-40v40h2V0h-2Zm1 39H40v2h104v-2Z" mask="url(#d)"/></svg>
